!!!OTL: Here's a Health to my True Love
!!!id: HA049
**kern
*clefF4
*k[b-e-a-]
*B-:
*M3/4
{4f
=1
4b-
16b-
8b-
8cc
8dd
16b-
=2yy
8cc
8b-
=3
8.a-
16g
4f
4dd
=4
8b-
8a-
8g
8f
8e-
16f
16g
=5
2f}
{8dd
8cc
=6
4dd
8dd
16ee-
16ff
8ee-
8dd
=7
8.cc
16b-
4aa-
8dd
8cc
=8
8.b-
16cc
4dd
4cc
=9
2b-}
{8b-
8cc
=10
4dd
16b-
8dd
8ee-
8ff
16b-
=11yy
8ee-
8dd
=12
4cc
16b-
8cc
8dd
8ee-
16b-
=13yy
8dd
8cc
=14
8b-
8a
8b-
8cc
8b-
16cc
16dd
=15
2f}
{8dd
8cc
=16
8b-
8a
8g
8f
8e-
8d
=17
4.e-
8d
8e-
16f
16g
=18
4f
4d
4cc
=19
2b-}
==
*-
!!!minrhy: 16
!!!meter: 3/4 
!!!cut: Here's a Health to my True Love
!!!key: HA049  16  B 3/4 
!!!fog: a--b--bv-c
!! Haydn: Volksliedbearbeitungen, Bd1
